X: 2419
T: Ballerina, The
R: jig
M: 6/8
K: Amajor
|:Bcc Bec-|ccd edc|cBE GBA-|Ac/d/e fed|
Bc/c/c Bec-|ccd edc|cBE GBA-|1 Ac/d/e fed:|2 z G2 F2||
|:DFA dec-|ccd cAE|DFA def|edc cBA|
DFA dec-|c2d cBA|BEE BB/c/d|1 cBA dcA:|2 cBA Bce||
fed fae-|e2d cBA|BEE BB/c/d|cBA Bce|
fed fae-|e2d cBA|BEE BB/c/d|cBA Bce
f2d fae-|e2d cBA|BEE BB/c/d|cBA Bce|
fed fae-|e2d cBA|EGA BG/E/E-|EdE cAB|EGA BG/E/E|
DFD CB,A,|EGA BG/E/E-|EdE cAB|GAB Bcd|cde def||

